X:1
T:Bernal Heights, 97.97 D
T:Bernal Heights, 97.97 D
T:William J. Henry & Andrew L. Byers, 1907
T:Public Domain Courtesy of the Cyber Hymnal™
C:William J. Henry & Andrew L. Byers, 1907
Z:Public Domain
Z:Courtesy of the Cyber Hymnal™
%%score ( 1 2 ) 3
L:1/8
Q:1/4=100
M:6/8
K:Eb
V:1 treble 
V:2 treble 
V:3 bass 
V:1
 B, | [B,E]2 [B,E] [EG][EF]E | [EB]2 [Ec] [EB]2 E | [EG]2 [EG] [DF]E[B,F] | [B,E]3- [B,E]2 B, | %5
 [B,E]2 [B,E] [EG][EF]E | [GB]2 [Ac] [GB]2 E | [EG]2 [EG] [B,F][B,E][B,F] | [B,E]3- [B,E]2 [GB] | %9
 [Ge]2 [Ge] [Ge][Bd][Ac] | [GB]2 [EG] [GB]2 [EB] | [Ec]2 [EB] [EG][B,F][CE] | [DB]3- [DB]2 B, | %13
 [B,E]2 [B,E] [EG][EF]E | [EB]2 [Ec] [EB]2 E | [EG]2 [EG] [DF][B,E][B,F] | [B,E]3- [B,E]4 |] %17
V:2
 B, | x5 E | x5 E | x4 E x | x5 B, | x5 E | x5 E | x6 | x6 | x6 | x6 | x6 | x5 B, | x5 E | x5 E | %15
 x6 | x7 |] %17
V:3
 [E,G,] | [E,G,]2 [E,G,] [E,B,][E,A,][E,G,] | [E,G,]2 [E,A,] [E,G,]2 [E,G,] | %3
 [E,B,]2 [E,B,] [B,,A,][B,,G,][B,,A,] | [E,G,]3- [E,G,]2 [E,G,] | %5
 [E,G,]2 [E,G,] [E,B,][E,A,][E,G,] | [E,E]2 [E,E] [E,E]2 [E,G,] | %7
 [B,,B,]2 [B,,B,] [B,,A,][B,,G,][B,,A,] | [E,G,]3- [E,G,]2 [E,B,] | %9
 [E,B,]2 [E,B,] [E,B,][E,C][E,D] | [E,E]2 [E,B,] [E,E]2 [G,E] | [A,E]2 [G,E] [E,B,][D,B,][C,^A,] | %12
 [B,,B,]3- [B,,B,]2 [E,G,] | [E,G,]2 [E,G,] [E,B,][E,A,][E,G,] | [E,G,]2 [E,A,] [E,G,]2 [C,^A,] | %15
 [B,,B,]2 [B,,B,] [B,,A,][B,,G,][B,,A,] | [E,G,]3- [E,G,]4 |] %17

